X:135
T:Charles Street Baulk. VWMLa.135
%%VWML:Anon2-3049-p77-0
F:http://www.vwml.org/record/Anon2/3049/p77
S:Anon. MS, late 18thC, Vaughan Williams Mem. Library
O:England;Yorkshire
Z:vmp/efdss.Simon Wilson. Reviewed PJH 2008.
M:C|
L:1/8
Q:1/2=90
K:A
aefe aecA|fgaf f2e2|aece fdBd|ceEG A2A,2:|\
|:EBGB EBAc|EGce c2B2|aece fdBd|ceGB A2A,2:|
